images/5461318.svg

<?xml version="1.0" encoding="UTF-8"?>
<svg xmlns="http://www.w3.org/2000/svg" xmlns:xlink="http://www.w3.org/1999/xlink" width="300pt" height="300pt" viewBox="0 0 300 300" version="1.1">
<defs>
<g>
<symbol overflow="visible" id="glyph0-0">
<path style="stroke:none;" d="M 0.453125 1.59375 L 0.453125 -6.34375 L 4.953125 -6.34375 L 4.953125 1.59375 Z M 0.953125 1.09375 L 4.453125 1.09375 L 4.453125 -5.84375 L 0.953125 -5.84375 Z M 0.953125 1.09375 "/>
</symbol>
<symbol overflow="visible" id="glyph0-1">
<path style="stroke:none;" d="M 0.890625 -6.5625 L 2.078125 -6.5625 L 4.984375 -1.078125 L 4.984375 -6.5625 L 5.84375 -6.5625 L 5.84375 0 L 4.65625 0 L 1.75 -5.484375 L 1.75 0 L 0.890625 0 Z M 0.890625 -6.5625 "/>
</symbol>
<symbol overflow="visible" id="glyph0-2">
<path style="stroke:none;" d="M 0.890625 -6.5625 L 1.765625 -6.5625 L 1.765625 -3.875 L 5 -3.875 L 5 -6.5625 L 5.890625 -6.5625 L 5.890625 0 L 5 0 L 5 -3.125 L 1.765625 -3.125 L 1.765625 0 L 0.890625 0 Z M 0.890625 -6.5625 "/>
</symbol>
<symbol overflow="visible" id="glyph0-3">
<path style="stroke:none;" d="M 3.546875 -5.953125 C 2.898438 -5.953125 2.382812 -5.710938 2 -5.234375 C 1.625 -4.753906 1.4375 -4.101562 1.4375 -3.28125 C 1.4375 -2.445312 1.625 -1.789062 2 -1.3125 C 2.382812 -0.832031 2.898438 -0.59375 3.546875 -0.59375 C 4.191406 -0.59375 4.703125 -0.832031 5.078125 -1.3125 C 5.453125 -1.789062 5.640625 -2.445312 5.640625 -3.28125 C 5.640625 -4.101562 5.453125 -4.753906 5.078125 -5.234375 C 4.703125 -5.710938 4.191406 -5.953125 3.546875 -5.953125 Z M 3.546875 -6.6875 C 4.460938 -6.6875 5.195312 -6.375 5.75 -5.75 C 6.300781 -5.132812 6.578125 -4.3125 6.578125 -3.28125 C 6.578125 -2.238281 6.300781 -1.410156 5.75 -0.796875 C 5.195312 -0.179688 4.460938 0.125 3.546875 0.125 C 2.617188 0.125 1.878906 -0.179688 1.328125 -0.796875 C 0.773438 -1.410156 0.5 -2.238281 0.5 -3.28125 C 0.5 -4.3125 0.773438 -5.132812 1.328125 -5.75 C 1.878906 -6.375 2.617188 -6.6875 3.546875 -6.6875 Z M 3.546875 -6.6875 "/>
</symbol>
<symbol overflow="visible" id="glyph0-4">
<path style="stroke:none;" d="M 1.765625 -3.140625 L 1.765625 -0.734375 L 3.1875 -0.734375 C 3.664062 -0.734375 4.019531 -0.832031 4.25 -1.03125 C 4.476562 -1.226562 4.59375 -1.53125 4.59375 -1.9375 C 4.59375 -2.34375 4.476562 -2.644531 4.25 -2.84375 C 4.019531 -3.039062 3.664062 -3.140625 3.1875 -3.140625 Z M 1.765625 -5.828125 L 1.765625 -3.859375 L 3.078125 -3.859375 C 3.515625 -3.859375 3.835938 -3.9375 4.046875 -4.09375 C 4.265625 -4.257812 4.375 -4.507812 4.375 -4.84375 C 4.375 -5.175781 4.265625 -5.421875 4.046875 -5.578125 C 3.835938 -5.742188 3.515625 -5.828125 3.078125 -5.828125 Z M 0.890625 -6.5625 L 3.15625 -6.5625 C 3.832031 -6.5625 4.351562 -6.421875 4.71875 -6.140625 C 5.082031 -5.859375 5.265625 -5.457031 5.265625 -4.9375 C 5.265625 -4.539062 5.171875 -4.222656 4.984375 -3.984375 C 4.796875 -3.742188 4.519531 -3.59375 4.15625 -3.53125 C 4.59375 -3.4375 4.929688 -3.238281 5.171875 -2.9375 C 5.410156 -2.644531 5.53125 -2.28125 5.53125 -1.84375 C 5.53125 -1.25 5.332031 -0.789062 4.9375 -0.46875 C 4.539062 -0.15625 3.972656 0 3.234375 0 L 0.890625 0 Z M 0.890625 -6.5625 "/>
</symbol>
<symbol overflow="visible" id="glyph0-5">
<path style="stroke:none;" d="M 3.703125 -4.171875 C 3.609375 -4.222656 3.507812 -4.257812 3.40625 -4.28125 C 3.300781 -4.300781 3.179688 -4.3125 3.046875 -4.3125 C 2.585938 -4.3125 2.234375 -4.160156 1.984375 -3.859375 C 1.742188 -3.566406 1.625 -3.144531 1.625 -2.59375 L 1.625 0 L 0.8125 0 L 0.8125 -4.921875 L 1.625 -4.921875 L 1.625 -4.15625 C 1.800781 -4.457031 2.023438 -4.679688 2.296875 -4.828125 C 2.566406 -4.972656 2.894531 -5.046875 3.28125 -5.046875 C 3.34375 -5.046875 3.40625 -5.039062 3.46875 -5.03125 C 3.539062 -5.019531 3.617188 -5.007812 3.703125 -5 Z M 3.703125 -4.171875 "/>
</symbol>
</g>
</defs>
<g id="surface47049">
<rect x="0" y="0" width="300" height="300" style="fill:rgb(100%,100%,100%);fill-opacity:1;stroke:none;"/>
<path style="fill:none;stroke-width:1;stroke-linecap:butt;stroke-linejoin:miter;stroke:rgb(0%,0%,0%);stroke-opacity:1;stroke-miterlimit:10;" d="M 201.796875 110.035156 L 201.796875 110.035156 M 203.652344 107.675781 L 202.730469 107.183594 M 205.503906 105.316406 L 203.667969 104.332031 M 207.359375 102.957031 L 204.601562 101.480469 M 209.210938 100.597656 L 205.535156 98.628906 M 211.066406 98.238281 L 206.46875 95.777344 M 212.917969 95.878906 L 207.402344 92.925781 M 214.773438 93.519531 L 208.335938 90.078125 M 216.625 91.160156 L 209.269531 87.226562 M 217.589844 89.933594 L 209.753906 85.742188 "/>
<path style="fill:none;stroke-width:1.2;stroke-linecap:butt;stroke-linejoin:miter;stroke:rgb(0%,0%,0%);stroke-opacity:1;stroke-miterlimit:10;" d="M 201.796875 110.035156 L 177.878906 102.195312 "/>
<path style="fill:none;stroke-width:1.2;stroke-linecap:butt;stroke-linejoin:miter;stroke:rgb(0%,0%,0%);stroke-opacity:1;stroke-miterlimit:10;" d="M 201.796875 110.035156 L 221.59375 125.578125 "/>
<path style="fill:none;stroke-width:1.2;stroke-linecap:butt;stroke-linejoin:miter;stroke:rgb(0%,0%,0%);stroke-opacity:1;stroke-miterlimit:10;" d="M 183.050781 126.828125 L 201.796875 110.035156 "/>
<path style="fill:none;stroke-width:1;stroke-linecap:butt;stroke-linejoin:miter;stroke:rgb(0%,0%,0%);stroke-opacity:1;stroke-miterlimit:10;" d="M 183.050781 126.828125 L 183.050781 126.828125 M 182.953125 123.828125 L 181.933594 124.042969 M 182.855469 120.832031 L 180.816406 121.257812 M 182.761719 117.832031 L 179.699219 118.476562 M 182.664062 114.835938 L 178.582031 115.691406 M 182.566406 111.835938 L 177.464844 112.90625 M 182.46875 108.835938 L 176.347656 110.121094 M 182.375 105.839844 L 175.230469 107.339844 M 182.277344 102.839844 L 174.113281 104.554688 M 182.226562 101.28125 L 173.53125 103.105469 "/>
<path style="fill:none;stroke-width:1.2;stroke-linecap:butt;stroke-linejoin:miter;stroke:rgb(0%,0%,0%);stroke-opacity:1;stroke-miterlimit:10;" d="M 183.050781 126.828125 L 175.210938 150.746094 "/>
<path style=" stroke:none;fill-rule:nonzero;fill:rgb(0%,0%,0%);fill-opacity:1;" d="M 175.210938 150.746094 L 188.699219 172.457031 L 195.316406 166.53125 Z M 175.210938 150.746094 "/>
<path style="fill:none;stroke-width:1.2;stroke-linecap:butt;stroke-linejoin:miter;stroke:rgb(0%,0%,0%);stroke-opacity:1;stroke-miterlimit:10;" d="M 175.210938 150.746094 L 162.894531 153.332031 "/>
<path style="fill:none;stroke-width:1.2;stroke-linecap:butt;stroke-linejoin:miter;stroke:rgb(0%,0%,100%);stroke-opacity:1;stroke-miterlimit:10;" d="M 162.894531 153.332031 L 150.578125 155.917969 "/>
<path style="fill:none;stroke-width:1.2;stroke-linecap:butt;stroke-linejoin:miter;stroke:rgb(0%,0%,0%);stroke-opacity:1;stroke-miterlimit:10;" d="M 192.007812 169.496094 L 184.167969 193.414062 "/>
<path style="fill:none;stroke-width:1.2;stroke-linecap:butt;stroke-linejoin:miter;stroke:rgb(0%,0%,0%);stroke-opacity:1;stroke-miterlimit:10;" d="M 196.851562 173.730469 L 190.578125 192.867188 "/>
<path style="fill:none;stroke-width:1.2;stroke-linecap:butt;stroke-linejoin:miter;stroke:rgb(0%,0%,0%);stroke-opacity:1;stroke-miterlimit:10;" d="M 216.640625 164.324219 L 192.007812 169.496094 "/>
<path style="fill:none;stroke-width:1.2;stroke-linecap:butt;stroke-linejoin:miter;stroke:rgb(0%,0%,0%);stroke-opacity:1;stroke-miterlimit:10;" d="M 184.167969 193.414062 L 200.960938 212.160156 "/>
<path style="fill:none;stroke-width:1.2;stroke-linecap:butt;stroke-linejoin:miter;stroke:rgb(0%,0%,0%);stroke-opacity:1;stroke-miterlimit:10;" d="M 200.960938 212.160156 L 225.597656 206.988281 "/>
<path style="fill:none;stroke-width:1.2;stroke-linecap:butt;stroke-linejoin:miter;stroke:rgb(0%,0%,0%);stroke-opacity:1;stroke-miterlimit:10;" d="M 202.210938 205.847656 L 221.917969 201.710938 "/>
<path style="fill:none;stroke-width:1.2;stroke-linecap:butt;stroke-linejoin:miter;stroke:rgb(0%,0%,0%);stroke-opacity:1;stroke-miterlimit:10;" d="M 225.597656 206.988281 L 233.433594 183.070312 "/>
<path style="fill:none;stroke-width:1.2;stroke-linecap:butt;stroke-linejoin:miter;stroke:rgb(0%,0%,0%);stroke-opacity:1;stroke-miterlimit:10;" d="M 233.433594 183.070312 L 216.640625 164.324219 "/>
<path style="fill:none;stroke-width:1.2;stroke-linecap:butt;stroke-linejoin:miter;stroke:rgb(0%,0%,0%);stroke-opacity:1;stroke-miterlimit:10;" d="M 227.34375 185.148438 L 213.910156 170.148438 "/>
<path style="fill:none;stroke-width:1.2;stroke-linecap:butt;stroke-linejoin:miter;stroke:rgb(0%,0%,100%);stroke-opacity:1;stroke-miterlimit:10;" d="M 150.578125 155.917969 L 142.179688 146.542969 "/>
<path style="fill:none;stroke-width:1.2;stroke-linecap:butt;stroke-linejoin:miter;stroke:rgb(0%,0%,0%);stroke-opacity:1;stroke-miterlimit:10;" d="M 142.179688 146.542969 L 133.785156 137.167969 "/>
<path style=" stroke:none;fill-rule:nonzero;fill:rgb(100%,100%,100%);fill-opacity:1;" d="M 143.578125 150.417969 L 157.578125 150.417969 L 157.578125 161.417969 L 143.578125 161.417969 Z M 143.578125 150.417969 "/>
<g style="fill:rgb(0%,0%,100%);fill-opacity:1;">
  <use xlink:href="#glyph0-1" x="143.578125" y="159.081055"/>
  <use xlink:href="#glyph0-2" x="150.555664" y="159.081055"/>
</g>
<path style="fill:none;stroke-width:1.2;stroke-linecap:butt;stroke-linejoin:miter;stroke:rgb(0%,0%,0%);stroke-opacity:1;stroke-miterlimit:10;" d="M 136.597656 138.089844 L 140.515625 126.132812 "/>
<path style="fill:none;stroke-width:1.2;stroke-linecap:butt;stroke-linejoin:miter;stroke:rgb(100%,0%,0%);stroke-opacity:1;stroke-miterlimit:10;" d="M 140.515625 126.132812 L 144.4375 114.171875 "/>
<path style="fill:none;stroke-width:1.2;stroke-linecap:butt;stroke-linejoin:miter;stroke:rgb(0%,0%,0%);stroke-opacity:1;stroke-miterlimit:10;" d="M 130.96875 136.246094 L 134.890625 124.289062 "/>
<path style="fill:none;stroke-width:1.2;stroke-linecap:butt;stroke-linejoin:miter;stroke:rgb(100%,0%,0%);stroke-opacity:1;stroke-miterlimit:10;" d="M 134.890625 124.289062 L 138.808594 112.328125 "/>
<path style="fill:none;stroke-width:1.2;stroke-linecap:butt;stroke-linejoin:miter;stroke:rgb(0%,0%,0%);stroke-opacity:1;stroke-miterlimit:10;" d="M 133.785156 137.167969 L 109.148438 142.339844 "/>
<path style=" stroke:none;fill-rule:nonzero;fill:rgb(100%,100%,100%);fill-opacity:1;" d="M 137.621094 107.75 L 145.621094 107.75 L 145.621094 118.75 L 137.621094 118.75 Z M 137.621094 107.75 "/>
<g style="fill:rgb(100%,0%,0%);fill-opacity:1;">
  <use xlink:href="#glyph0-3" x="137.621094" y="116.413086"/>
</g>
<path style="fill:none;stroke-width:1.2;stroke-linecap:butt;stroke-linejoin:miter;stroke:rgb(0%,0%,0%);stroke-opacity:1;stroke-miterlimit:10;" d="M 109.148438 142.339844 L 92.355469 123.59375 "/>
<path style="fill:none;stroke-width:1.2;stroke-linecap:butt;stroke-linejoin:miter;stroke:rgb(0%,0%,0%);stroke-opacity:1;stroke-miterlimit:10;" d="M 103.058594 144.417969 L 89.625 129.417969 "/>
<path style="fill:none;stroke-width:1.2;stroke-linecap:butt;stroke-linejoin:miter;stroke:rgb(0%,0%,0%);stroke-opacity:1;stroke-miterlimit:10;" d="M 101.3125 166.257812 L 109.148438 142.339844 "/>
<path style="fill:none;stroke-width:1.2;stroke-linecap:butt;stroke-linejoin:miter;stroke:rgb(0%,0%,0%);stroke-opacity:1;stroke-miterlimit:10;" d="M 92.355469 123.59375 L 67.722656 128.761719 "/>
<path style="fill:none;stroke-width:1.2;stroke-linecap:butt;stroke-linejoin:miter;stroke:rgb(0%,0%,0%);stroke-opacity:1;stroke-miterlimit:10;" d="M 67.722656 128.761719 L 59.882812 152.679688 "/>
<path style="fill:none;stroke-width:1.2;stroke-linecap:butt;stroke-linejoin:miter;stroke:rgb(0%,0%,0%);stroke-opacity:1;stroke-miterlimit:10;" d="M 72.566406 133 L 66.296875 152.132812 "/>
<path style="fill:none;stroke-width:1.2;stroke-linecap:butt;stroke-linejoin:miter;stroke:rgb(0%,0%,0%);stroke-opacity:1;stroke-miterlimit:10;" d="M 59.882812 152.679688 L 76.679688 171.429688 "/>
<path style="fill:none;stroke-width:1.2;stroke-linecap:butt;stroke-linejoin:miter;stroke:rgb(0%,0%,0%);stroke-opacity:1;stroke-miterlimit:10;" d="M 59.882812 152.679688 L 47.566406 155.265625 "/>
<path style="fill:none;stroke-width:1.2;stroke-linecap:butt;stroke-linejoin:miter;stroke:rgb(50%,30%,10%);stroke-opacity:1;stroke-miterlimit:10;" d="M 47.566406 155.265625 L 35.25 157.851562 "/>
<path style="fill:none;stroke-width:1.2;stroke-linecap:butt;stroke-linejoin:miter;stroke:rgb(0%,0%,0%);stroke-opacity:1;stroke-miterlimit:10;" d="M 76.679688 171.429688 L 101.3125 166.257812 "/>
<path style="fill:none;stroke-width:1.2;stroke-linecap:butt;stroke-linejoin:miter;stroke:rgb(0%,0%,0%);stroke-opacity:1;stroke-miterlimit:10;" d="M 77.925781 165.117188 L 97.632812 160.980469 "/>
<path style=" stroke:none;fill-rule:nonzero;fill:rgb(100%,100%,100%);fill-opacity:1;" d="M 24.25 152.351562 L 35.25 152.351562 L 35.25 163.351562 L 24.25 163.351562 Z M 24.25 152.351562 "/>
<g style="fill:rgb(50%,30%,10%);fill-opacity:1;">
  <use xlink:href="#glyph0-4" x="24.25" y="161.014648"/>
  <use xlink:href="#glyph0-5" x="30.649414" y="161.014648"/>
</g>
<path style="fill:none;stroke-width:1.2;stroke-linecap:butt;stroke-linejoin:miter;stroke:rgb(0%,0%,0%);stroke-opacity:1;stroke-miterlimit:10;" d="M 218.664062 125.160156 L 216.878906 137.617188 "/>
<path style="fill:none;stroke-width:1.2;stroke-linecap:butt;stroke-linejoin:miter;stroke:rgb(100%,0%,0%);stroke-opacity:1;stroke-miterlimit:10;" d="M 216.878906 137.617188 L 215.097656 150.078125 "/>
<path style="fill:none;stroke-width:1.2;stroke-linecap:butt;stroke-linejoin:miter;stroke:rgb(0%,0%,0%);stroke-opacity:1;stroke-miterlimit:10;" d="M 224.523438 126 L 222.742188 138.457031 "/>
<path style="fill:none;stroke-width:1.2;stroke-linecap:butt;stroke-linejoin:miter;stroke:rgb(100%,0%,0%);stroke-opacity:1;stroke-miterlimit:10;" d="M 222.742188 138.457031 L 220.957031 150.914062 "/>
<path style="fill:none;stroke-width:1.2;stroke-linecap:butt;stroke-linejoin:miter;stroke:rgb(0%,0%,0%);stroke-opacity:1;stroke-miterlimit:10;" d="M 221.59375 125.578125 L 233.273438 120.894531 "/>
<path style="fill:none;stroke-width:1.2;stroke-linecap:butt;stroke-linejoin:miter;stroke:rgb(100%,0%,0%);stroke-opacity:1;stroke-miterlimit:10;" d="M 233.273438 120.894531 L 244.953125 116.210938 "/>
<path style=" stroke:none;fill-rule:nonzero;fill:rgb(100%,100%,100%);fill-opacity:1;" d="M 214.027344 144.996094 L 222.027344 144.996094 L 222.027344 155.996094 L 214.027344 155.996094 Z M 214.027344 144.996094 "/>
<g style="fill:rgb(100%,0%,0%);fill-opacity:1;">
  <use xlink:href="#glyph0-3" x="214.027344" y="153.65918"/>
</g>
<path style="fill:none;stroke-width:1.2;stroke-linecap:butt;stroke-linejoin:miter;stroke:rgb(100%,0%,0%);stroke-opacity:1;stroke-miterlimit:10;" d="M 244.953125 116.210938 L 254.851562 123.984375 "/>
<path style="fill:none;stroke-width:1.2;stroke-linecap:butt;stroke-linejoin:miter;stroke:rgb(0%,0%,0%);stroke-opacity:1;stroke-miterlimit:10;" d="M 254.851562 123.984375 L 264.75 131.757812 "/>
<path style=" stroke:none;fill-rule:nonzero;fill:rgb(100%,100%,100%);fill-opacity:1;" d="M 240.953125 110.710938 L 248.953125 110.710938 L 248.953125 121.710938 L 240.953125 121.710938 Z M 240.953125 110.710938 "/>
<g style="fill:rgb(100%,0%,0%);fill-opacity:1;">
  <use xlink:href="#glyph0-3" x="240.953125" y="119.374023"/>
</g>
</g>
</svg>

<svg xmlns="http://www.w3.org/2000/svg" xmlns:xlink="http://www.w3.org/1999/xlink" width="300pt" height="300pt" viewBox="0 0 300 300"><defs><symbol overflow="visible"><path d="M.453 1.594v-7.938h4.5v7.938zm.5-.5h3.5v-6.938h-3.5zm0 0"/></symbol><symbol overflow="visible" id="a"><path d="M.89-6.563H2.08l2.906 5.485v-5.484h.86V0H4.656L1.75-5.484V0H.89zm0 0"/></symbol><symbol overflow="visible" id="b"><path d="M.89-6.563h.876v2.688H5v-2.688h.89V0H5v-3.125H1.766V0H.89zm0 0"/></symbol><symbol overflow="visible" id="c"><path d="M3.547-5.953c-.65 0-1.164.242-1.547.72-.375.48-.563 1.13-.563 1.952 0 .835.188 1.49.563 1.967.383.48.898.72 1.547.72.644 0 1.156-.24 1.53-.72.376-.476.564-1.132.564-1.968 0-.822-.187-1.474-.562-1.954-.375-.477-.887-.72-1.53-.72zm0-.734c.914 0 1.648.312 2.203.937.55.617.828 1.438.828 2.47 0 1.042-.277 1.87-.828 2.483-.555.617-1.29.922-2.203.922-.93 0-1.668-.305-2.22-.922C.774-1.41.5-2.237.5-3.28c0-1.033.273-1.853.828-2.47.55-.625 1.29-.938 2.22-.938zm0 0"/></symbol><symbol overflow="visible" id="d"><path d="M1.766-3.14v2.406h1.421c.477 0 .833-.098 1.063-.297.227-.197.344-.5.344-.907 0-.407-.117-.708-.344-.907-.23-.195-.586-.297-1.063-.297zm0-2.688v1.97h1.312c.438 0 .758-.08.97-.236.218-.164.327-.414.327-.75 0-.332-.11-.578-.328-.734-.21-.164-.53-.25-.97-.25zM.89-6.562h2.266c.676 0 1.196.14 1.563.42.362.283.546.685.546 1.205 0 .398-.094.714-.282.953-.187.242-.464.39-.828.453.438.092.774.292 1.016.592.238.293.36.657.36 1.094 0 .594-.2 1.055-.595 1.375-.398.314-.964.47-1.703.47H.89zm0 0"/></symbol><symbol overflow="visible" id="e"><path d="M3.703-4.172c-.094-.05-.195-.086-.297-.11-.105-.02-.226-.03-.36-.03-.46 0-.812.152-1.062.453-.242.294-.36.715-.36 1.266V0H.813v-4.922h.813v.766c.176-.3.398-.524.672-.672.27-.145.598-.22.984-.22.064 0 .126.01.19.017.07.01.147.022.233.03zm0 0"/></symbol></defs><g><path fill="#fff" d="M0 0h300v300H0z"/><path d="M201.797 110.035m1.855-2.36l-.922-.49m2.774-1.87l-1.836-.983m3.69-1.375l-2.756-1.477m4.61-.882l-3.677-1.97m5.53-.39l-4.596-2.46m6.448.1l-5.516-2.952m7.37.594l-6.436-3.442m8.29 1.082l-7.356-3.933m8.32 2.707l-7.836-4.192" stroke="#000" stroke-miterlimit="10" fill="none"/><path d="M201.797 110.035l-23.918-7.84M201.797 110.035l19.797 15.543M183.05 126.828l18.747-16.793" stroke-width="1.2" stroke="#000" stroke-miterlimit="10" fill="none"/><path d="M183.05 126.828m-.097-3l-1.02.215m.922-3.21l-2.04.425m1.947-3.426l-3.063.645m2.964-3.64l-4.082.854m3.984-3.854l-5.1 1.07m5.003-4.07l-6.122 1.285m6.027-4.28l-7.145 1.5m7.047-4.5l-8.164 1.715m8.114-3.274l-8.696 1.825" stroke="#000" stroke-miterlimit="10" fill="none"/><path d="M183.05 126.828l-7.84 23.918" stroke-width="1.2" stroke="#000" stroke-miterlimit="10" fill="none"/><path d="M175.21 150.746l13.49 21.71 6.616-5.925zm0 0"/><path d="M175.21 150.746l-12.315 2.586" stroke-width="1.2" stroke="#000" stroke-miterlimit="10" fill="none"/><path d="M162.895 153.332l-12.317 2.586" stroke-width="1.2" stroke="#00f" stroke-miterlimit="10" fill="none"/><path d="M192.008 169.496l-7.84 23.918M196.852 173.73l-6.274 19.137M216.64 164.324l-24.632 5.172M184.168 193.414l16.793 18.746M200.96 212.16l24.638-5.172M202.21 205.848l19.708-4.137M225.598 206.988l7.836-23.918M233.434 183.07l-16.793-18.746M227.344 185.148l-13.434-15" stroke-width="1.2" stroke="#000" stroke-miterlimit="10" fill="none"/><path d="M150.578 155.918l-8.398-9.375" stroke-width="1.2" stroke="#00f" stroke-miterlimit="10" fill="none"/><path d="M142.18 146.543l-8.395-9.375" stroke-width="1.2" stroke="#000" stroke-miterlimit="10" fill="none"/><path d="M143.578 150.418h14v11h-14zm0 0" fill="#fff"/><g fill="#00f"><use xlink:href="#a" x="143.578" y="159.081"/><use xlink:href="#b" x="150.556" y="159.081"/></g><path d="M136.598 138.09l3.918-11.957" stroke-width="1.2" stroke="#000" stroke-miterlimit="10" fill="none"/><path d="M140.516 126.133l3.922-11.96" stroke-width="1.2" stroke="#f00" stroke-miterlimit="10" fill="none"/><path d="M130.97 136.246l3.92-11.957" stroke-width="1.2" stroke="#000" stroke-miterlimit="10" fill="none"/><path d="M134.89 124.29l3.92-11.962" stroke-width="1.2" stroke="#f00" stroke-miterlimit="10" fill="none"/><path d="M133.785 137.168l-24.637 5.172" stroke-width="1.2" stroke="#000" stroke-miterlimit="10" fill="none"/><path d="M137.62 107.75h8v11h-8zm0 0" fill="#fff"/><use xlink:href="#c" x="137.621" y="116.413" fill="#f00"/><path d="M109.148 142.34l-16.793-18.746M103.06 144.418l-13.435-15M101.313 166.258l7.835-23.918M92.355 123.594l-24.632 5.168M67.723 128.762l-7.84 23.918M72.566 133l-6.27 19.133M59.883 152.68l16.797 18.75M59.883 152.68l-12.317 2.586" stroke-width="1.2" stroke="#000" stroke-miterlimit="10" fill="none"/><path d="M47.566 155.266l-12.316 2.586" stroke-width="1.2" stroke="#7f4d1a" stroke-miterlimit="10" fill="none"/><path d="M76.68 171.43l24.632-5.172M77.926 165.117l19.707-4.137" stroke-width="1.2" stroke="#000" stroke-miterlimit="10" fill="none"/><path d="M24.25 152.352h11v11h-11zm0 0" fill="#fff"/><g fill="#7f4d1a"><use xlink:href="#d" x="24.25" y="161.015"/><use xlink:href="#e" x="30.649" y="161.015"/></g><path d="M218.664 125.16l-1.785 12.457" stroke-width="1.2" stroke="#000" stroke-miterlimit="10" fill="none"/><path d="M216.88 137.617l-1.782 12.46" stroke-width="1.2" stroke="#f00" stroke-miterlimit="10" fill="none"/><path d="M224.523 126l-1.78 12.457" stroke-width="1.2" stroke="#000" stroke-miterlimit="10" fill="none"/><path d="M222.742 138.457l-1.785 12.457" stroke-width="1.2" stroke="#f00" stroke-miterlimit="10" fill="none"/><path d="M221.594 125.578l11.68-4.683" stroke-width="1.2" stroke="#000" stroke-miterlimit="10" fill="none"/><path d="M233.273 120.895l11.68-4.684" stroke-width="1.2" stroke="#f00" stroke-miterlimit="10" fill="none"/><path d="M214.027 144.996h8v11h-8zm0 0" fill="#fff"/><use xlink:href="#c" x="214.027" y="153.659" fill="#f00"/><path d="M244.953 116.21l9.9 7.774" stroke-width="1.2" stroke="#f00" stroke-miterlimit="10" fill="none"/><path d="M254.852 123.984l9.898 7.774" stroke-width="1.2" stroke="#000" stroke-miterlimit="10" fill="none"/><path d="M240.953 110.71h8v11h-8zm0 0" fill="#fff"/><use xlink:href="#c" x="240.953" y="119.374" fill="#f00"/></g></svg>
